src/img/svg/logo-bank/1.svg

<svg width="140" height="24" viewBox="0 0 140 24" fill="none" xmlns="http://www.w3.org/2000/svg">
<g clip-path="url(#clip0_34_3171)">
<path d="M62.5971 7.11796L65.5167 4.94456H55.7453V17.9659H65.5167V15.7912H58.5371V12.4665H64.5014V10.2931H58.5371V7.11796H62.5971ZM48.3647 10.0172H44.9802V7.11796H50.3954L53.3136 4.94456H42.1897V17.9659H48.0058C51.2625 17.9659 53.1437 16.4735 53.1437 13.8747C53.1437 11.3805 51.4528 10.0172 48.3647 10.0172ZM47.8998 15.7912H44.9816V12.1892H47.8998C49.6763 12.1892 50.5014 12.7873 50.5014 14.0011C50.5014 15.2162 49.6124 15.7912 47.8998 15.7912ZM73.4247 4.94456H68.1169V17.9659H70.9088V14.2783H73.4464C76.8309 14.2783 78.9445 12.4883 78.9445 9.61213C78.9445 6.73466 76.8282 4.94456 73.4247 4.94456ZM73.3622 12.1049H70.8884V7.11796H73.3622C75.159 7.11796 76.1323 8.01369 76.1323 9.61213C76.1323 11.2092 75.159 12.1049 73.3622 12.1049ZM37.4107 15.1523C36.6718 15.558 35.8424 15.7707 34.9994 15.7708C32.4822 15.7708 30.6635 13.9589 30.6635 11.4661C30.6635 8.97194 32.4822 7.16145 34.9994 7.16145C35.9108 7.14799 36.8016 7.4319 37.5371 7.97019L39.546 6.47912L39.4196 6.35136C38.2561 5.30747 36.6917 4.77466 34.9152 4.77466C32.9905 4.77466 31.2358 5.43524 29.9662 6.62864C29.3335 7.24501 28.8344 7.98492 28.4998 8.80238C28.1652 9.61984 28.0023 10.4974 28.0212 11.3805C28.0087 12.2755 28.1742 13.164 28.5081 13.9945C28.842 14.8249 29.3377 15.5807 29.9662 16.218C31.2935 17.4785 33.0632 18.1669 34.8934 18.1345C36.9024 18.1345 38.6585 17.4317 39.8424 16.1541L38.0455 14.8112L37.4107 15.1523ZM112.506 4.96631V17.9877H115.298V12.6595H121.242V17.9877H124.034V4.96631H121.242V10.3149H115.3V4.96631H112.506ZM107.707 17.9877H110.646L105.19 4.96631H102.356L96.7938 17.9877H99.6074L100.727 15.3644H106.65L107.707 17.9877ZM101.573 13.1923L103.731 7.97019L105.761 13.1923H101.574H101.573ZM130.293 12.7234H132.026L136.298 17.9646H139.893L134.185 11.231L139.174 4.94456H135.982L131.836 10.5283H130.295V4.94456H127.503V17.9659H130.293V12.722V12.7234ZM87.5728 10.0376V7.13971H94.8691V4.96495H84.7823V17.9863H90.5971C93.8552 17.9863 95.7363 16.4952 95.7363 13.895C95.7363 11.4022 94.0441 10.0376 90.9573 10.0376H87.5728ZM87.5728 15.8129V12.211H90.4925C92.2676 12.211 93.0926 12.809 93.0926 14.0228C93.0926 15.238 92.2255 15.8347 90.4925 15.8347H87.5742L87.5728 15.8129ZM19.2868 4.85893C19.7938 5.51951 20.2165 6.24534 20.5767 7.01194L10.8053 14.2783L6.70312 11.6782V8.56689L10.7849 11.1453L19.2868 4.85893Z" fill="#21A038"/>
<path d="M2.53629 11.4659C2.53629 11.3164 2.53629 11.1887 2.55804 11.0391L0.0842541 10.9114C0.0842541 11.0813 0.0625066 11.2743 0.0625066 11.4442C0.0593559 14.3105 1.1923 17.0612 3.21319 19.0939L4.96794 17.3269C4.19458 16.5598 3.58137 15.6466 3.16393 14.6405C2.74649 13.6343 2.53315 12.5552 2.53629 11.4659Z" fill="url(#paint0_linear_34_3171)"/>
<path d="M10.7857 3.15419C10.9339 3.15419 11.0603 3.15419 11.2084 3.17594L11.3362 0.681765C11.1663 0.681765 10.976 0.661377 10.8061 0.661377C9.39359 0.661797 7.99521 0.942678 6.69208 1.48773C5.38896 2.03278 4.20703 2.83114 3.21484 3.83652L4.9696 5.60487C5.72708 4.82938 6.63191 4.2131 7.63094 3.79225C8.62996 3.37139 9.70303 3.15446 10.7871 3.15419H10.7857Z" fill="url(#paint1_linear_34_3171)"/>
<path d="M10.7849 19.7734C10.6367 19.7734 10.5103 19.7734 10.3621 19.7517L10.2344 22.2472C10.4029 22.2472 10.5932 22.2676 10.7618 22.2676C12.1745 22.2673 13.5731 21.9865 14.8765 21.4415C16.1799 20.8964 17.362 20.098 18.3544 19.0924L16.5996 17.3254C15.8464 18.1061 14.9425 18.7257 13.9428 19.1467C12.9431 19.5677 11.8683 19.7814 10.7835 19.7748L10.7849 19.7734Z" fill="url(#paint2_linear_34_3171)"/>
<path d="M15.4378 4.60279L17.531 3.04784C15.6264 1.49275 13.244 0.641653 10.7852 0.637939V3.13075C12.4486 3.14194 14.0701 3.65583 15.4378 4.60279Z" fill="url(#paint3_linear_34_3171)"/>
<path d="M21.5273 11.4643C21.5273 10.8037 21.4634 10.1635 21.3574 9.52466L19.0535 11.2509V11.4643C19.0551 12.6245 18.813 13.7721 18.3428 14.8328C17.8727 15.8935 17.1849 16.8436 16.3242 17.6216L17.9961 19.4769C19.1099 18.4607 19.9994 17.2231 20.6074 15.8433C21.2155 14.4636 21.5288 12.9721 21.5273 11.4643Z" fill="#21A038"/>
<path d="M10.7835 19.773C9.62844 19.7731 8.4865 19.5282 7.43309 19.0545C6.37967 18.5807 5.43873 17.8889 4.67242 17.0247L2.83203 18.7074C3.83115 19.8282 5.05625 20.7247 6.42673 21.338C7.79722 21.9513 9.28203 22.2675 10.7835 22.2658V19.773Z" fill="url(#paint4_linear_34_3171)"/>
<path d="M5.26429 5.30578L3.59381 3.45044C2.4777 4.46518 1.58678 5.70267 0.978532 7.08305C0.370289 8.46342 0.0582453 9.95599 0.0625438 11.4644H2.53633C2.53649 10.3044 2.77927 9.15725 3.24907 8.09663C3.71887 7.03601 4.4053 6.08538 5.26429 5.30578Z" fill="url(#paint5_linear_34_3171)"/>
</g>
<defs>
<linearGradient id="paint0_linear_34_3171" x1="2.9495" y1="18.7908" x2="0.4227" y2="11.432" gradientUnits="userSpaceOnUse">
<stop offset="0.144" stop-color="#F2E913"/>
<stop offset="0.304" stop-color="#E7E518"/>
<stop offset="0.582" stop-color="#CADB26"/>
<stop offset="0.891" stop-color="#A3CD39"/>
</linearGradient>
<linearGradient id="paint1_linear_34_3171" x1="3.92028" y1="3.55516" x2="10.3345" y2="1.09225" gradientUnits="userSpaceOnUse">
<stop offset="0.059" stop-color="#0FA8E0"/>
<stop offset="0.538" stop-color="#0099F9"/>
<stop offset="0.923" stop-color="#0291EB"/>
</linearGradient>
<linearGradient id="paint2_linear_34_3171" x1="10.0903" y1="20.1458" x2="17.7359" y2="18.4047" gradientUnits="userSpaceOnUse">
<stop offset="0.123" stop-color="#A3CD39"/>
<stop offset="0.285" stop-color="#86C339"/>
<stop offset="0.869" stop-color="#21A038"/>
</linearGradient>
<linearGradient id="paint3_linear_34_3171" x1="10.2768" y1="2.22687" x2="16.6339" y2="4.20454" gradientUnits="userSpaceOnUse">
<stop offset="0.057" stop-color="#0291EB"/>
<stop offset="0.79" stop-color="#0C8ACB"/>
</linearGradient>
<linearGradient id="paint4_linear_34_3171" x1="3.46135" y1="19.1029" x2="10.2901" y2="21.6732" gradientUnits="userSpaceOnUse">
<stop offset="0.132" stop-color="#F2E913"/>
<stop offset="0.298" stop-color="#EBE716"/>
<stop offset="0.531" stop-color="#D9E01F"/>
<stop offset="0.802" stop-color="#BBD62D"/>
<stop offset="0.983" stop-color="#A3CD39"/>
</linearGradient>
<linearGradient id="paint5_linear_34_3171" x1="1.95866" y1="11.7648" x2="4.68934" y2="4.60578" gradientUnits="userSpaceOnUse">
<stop offset="0.07" stop-color="#A3CD39"/>
<stop offset="0.26" stop-color="#81C55F"/>
<stop offset="0.922" stop-color="#0FA8E0"/>
</linearGradient>
<clipPath id="clip0_34_3171">
<rect width="140" height="23.1068" fill="white" transform="translate(0 0.446533)"/>
</clipPath>
</defs>
</svg>

<svg width="140" height="24" viewBox="0 0 140 24" fill="none" xmlns="http://www.w3.org/2000/svg"><g clip-path="url(#a)"><path d="m62.597 7.118 2.92-2.173h-9.772v13.02h9.772v-2.174h-6.98v-3.325h5.964v-2.173h-5.964V7.118h4.06Zm-14.232 2.9H44.98v-2.9h5.415l2.919-2.173H42.19v13.02h5.816c3.257 0 5.138-1.491 5.138-4.09 0-2.495-1.691-3.858-4.78-3.858ZM47.9 15.79h-2.918v-3.6H47.9c1.776 0 2.601.598 2.601 1.812 0 1.215-.889 1.79-2.601 1.79ZM73.425 4.945h-5.308v13.02h2.792v-3.687h2.537c3.385 0 5.499-1.79 5.499-4.666 0-2.877-2.117-4.667-5.52-4.667Zm-.063 7.16h-2.474V7.118h2.474c1.797 0 2.77.896 2.77 2.494 0 1.597-.973 2.493-2.77 2.493Zm-35.951 3.047a5.011 5.011 0 0 1-2.412.619c-2.517 0-4.336-1.812-4.336-4.305 0-2.494 1.82-4.305 4.336-4.305a4.192 4.192 0 0 1 2.538.81l2.009-1.492-.126-.128c-1.164-1.044-2.728-1.576-4.505-1.576-1.925 0-3.68.66-4.949 1.854a6.441 6.441 0 0 0-1.945 4.752 6.754 6.754 0 0 0 1.945 4.837 6.976 6.976 0 0 0 4.927 1.916c2.01 0 3.765-.702 4.95-1.98l-1.798-1.343-.634.341Zm75.095-10.186v13.022h2.792v-5.329h5.944v5.329h2.792V4.966h-2.792v5.349H115.3V4.966h-2.794Zm-4.799 13.022h2.939L105.19 4.966h-2.834l-5.562 13.022h2.813l1.12-2.624h5.923l1.057 2.624Zm-6.134-4.796 2.158-5.222 2.03 5.222h-4.188Zm28.72-.469h1.733l4.272 5.242h3.595l-5.708-6.734 4.989-6.286h-3.192l-4.146 5.583h-1.541V4.945h-2.792v13.02h2.79v-5.243.001Zm-42.72-2.685V7.14h7.296V4.965H84.782v13.021h5.815c3.258 0 5.14-1.49 5.14-4.091 0-2.493-1.693-3.857-4.78-3.857h-3.384Zm0 5.775V12.21h2.92c1.775 0 2.6.598 2.6 1.812 0 1.215-.868 1.812-2.6 1.812h-2.919l-.001-.022ZM19.287 4.859c.507.66.93 1.386 1.29 2.153l-9.772 7.266-4.102-2.6V8.567l4.082 2.578 8.502-6.286Z" fill="#21A038"/><path d="M2.536 11.466c0-.15 0-.277.022-.427l-2.474-.128c0 .17-.021.363-.021.533a10.833 10.833 0 0 0 3.15 7.65l1.755-1.767a8.222 8.222 0 0 1-2.432-5.861Z" fill="url(#b)"/><path d="M10.786 3.154c.148 0 .274 0 .422.022l.128-2.494c-.17 0-.36-.02-.53-.02a10.67 10.67 0 0 0-7.591 3.175L4.97 5.605a8.135 8.135 0 0 1 5.817-2.45h-.001Z" fill="url(#c)"/><path d="M10.785 19.773c-.148 0-.275 0-.423-.021l-.128 2.495c.169 0 .36.02.528.02a10.672 10.672 0 0 0 7.592-3.175L16.6 17.325a8.013 8.013 0 0 1-5.817 2.45l.002-.002Z" fill="url(#d)"/><path d="m15.438 4.603 2.093-1.555a10.692 10.692 0 0 0-6.746-2.41V3.13a8.272 8.272 0 0 1 4.653 1.472Z" fill="url(#e)"/><path d="M21.527 11.464c0-.66-.064-1.3-.17-1.94l-2.303 1.727v.213a8.284 8.284 0 0 1-2.73 6.158l1.672 1.855a10.83 10.83 0 0 0 3.531-8.013Z" fill="#21A038"/><path d="M10.784 19.773a8.168 8.168 0 0 1-6.112-2.748l-1.84 1.682a10.635 10.635 0 0 0 7.952 3.559v-2.493Z" fill="url(#f)"/><path d="M5.264 5.306 3.594 3.45a10.79 10.79 0 0 0-3.531 8.014h2.473a8.318 8.318 0 0 1 2.728-6.158Z" fill="url(#g)"/></g><defs><linearGradient id="b" x1="2.95" y1="18.791" x2=".423" y2="11.432" gradientUnits="userSpaceOnUse"><stop offset=".144" stop-color="#F2E913"/><stop offset=".304" stop-color="#E7E518"/><stop offset=".582" stop-color="#CADB26"/><stop offset=".891" stop-color="#A3CD39"/></linearGradient><linearGradient id="c" x1="3.92" y1="3.555" x2="10.335" y2="1.092" gradientUnits="userSpaceOnUse"><stop offset=".059" stop-color="#0FA8E0"/><stop offset=".538" stop-color="#0099F9"/><stop offset=".923" stop-color="#0291EB"/></linearGradient><linearGradient id="d" x1="10.09" y1="20.146" x2="17.736" y2="18.405" gradientUnits="userSpaceOnUse"><stop offset=".123" stop-color="#A3CD39"/><stop offset=".285" stop-color="#86C339"/><stop offset=".869" stop-color="#21A038"/></linearGradient><linearGradient id="e" x1="10.277" y1="2.227" x2="16.634" y2="4.205" gradientUnits="userSpaceOnUse"><stop offset=".057" stop-color="#0291EB"/><stop offset=".79" stop-color="#0C8ACB"/></linearGradient><linearGradient id="f" x1="3.461" y1="19.103" x2="10.29" y2="21.673" gradientUnits="userSpaceOnUse"><stop offset=".132" stop-color="#F2E913"/><stop offset=".298" stop-color="#EBE716"/><stop offset=".531" stop-color="#D9E01F"/><stop offset=".802" stop-color="#BBD62D"/><stop offset=".983" stop-color="#A3CD39"/></linearGradient><linearGradient id="g" x1="1.959" y1="11.765" x2="4.689" y2="4.606" gradientUnits="userSpaceOnUse"><stop offset=".07" stop-color="#A3CD39"/><stop offset=".26" stop-color="#81C55F"/><stop offset=".922" stop-color="#0FA8E0"/></linearGradient><clipPath id="a"><path fill="#fff" d="M0 .447h140v23.107H0z"/></clipPath></defs></svg>
